X: 1
T: Gan Ainm
M: 4/4
L: 1/8
R: reel
K: Gdor
Gzdz d2Gz|d2cz fzcz|Azcz dzcz|AzAz fzAz|
Gzdz d2Gz|d2cz fzaz|c'zgz fzcz|FzAz G4:| etc...
